X:1098
T:Bride's Reel, The
R:reel
C:James Scott Skinner (1843-1927), Scotland
H:also played with doubled parts
Z:id:hn-reel-1098
M:C|
L:1/8
K:D
d2AG FDA,D | B,DA,D CEAc | d2AF GBed | cAag fddc |
d2AG FDA,D | B,DA,D CEAc | dcdA BGdB | AFGE FDDg ||
fgaf dAFA | GBed cAag | fgaf dAFA | GBAc dDDg |
fgaf dAFA | GBed cAAc | dfeg fagb | afge fddc ||

